assets/sonr-icons/device-mac.svg

<svg xmlns="http://www.w3.org/2000/svg" width="24" height="24" fill="none"><path fill="currentColor" d="M13 17h-2v2H8a1 1 0 0 0 0 2h8a1 1 0 0 0 0-2h-3zM3 11.241V8.759c0-.805 0-1.469.044-2.011.046-.562.145-1.079.392-1.564a4 4 0 0 1 1.748-1.748c.485-.248 1.002-.346 1.564-.392C7.289 3 7.953 3 8.759 3h6.482c.805 0 1.469 0 2.011.044.562.046 1.078.145 1.564.392a4 4 0 0 1 1.748 1.748c.247.485.346 1.002.391 1.564.044.541.044 1.205.044 2.011v2.482c0 .805 0 1.469-.044 2.011-.046.562-.145 1.078-.391 1.564a4 4 0 0 1-1.748 1.748c-.485.247-1.002.346-1.564.391-.542.044-1.205.044-2.011.044H8.759c-.805 0-1.469 0-2.011-.044-.562-.046-1.078-.145-1.564-.391a4 4 0 0 1-1.748-1.748c-.248-.485-.346-1.002-.392-1.564C3 12.71 3 12.047 3 11.241m2.038 1.848c.036.439.101.662.181.819.192.376.498.682.874.874.157.08.38.145.819.181.45.037 1.033.038 1.889.038h6.4c.856 0 1.439-.001 1.889-.038.439-.036.662-.101.819-.181.377-.192.683-.498.874-.874.08-.157.145-.38.181-.819.037-.45.037-1.033.037-1.889V8.8c0-.856-.001-1.438-.037-1.889-.036-.439-.101-.662-.181-.819a2 2 0 0 0-.874-.874c-.157-.079-.38-.145-.819-.181C16.64 5 16.057 5 15.201 5h-6.4c-.857 0-1.438.001-1.889.037-.439.036-.662.101-.819.181a2 2 0 0 0-.874.874c-.08.157-.145.38-.181.819-.037.45-.037 1.033-.037 1.889v2.4c0 .856.001 1.439.037 1.889"/></svg>

<svg xmlns="http://www.w3.org/2000/svg" width="24" height="24" fill="none" viewBox="0 0 24 24"><path fill="#000" d="M13 17H11V19H8C7.448 19 7 19.448 7 20C7 20.552 7.448 21 8 21H16C16.552 21 17 20.552 17 20C17 19.448 16.552 19 16 19H13V17ZM3 11.241V8.759C3 7.954 3 7.29 3.044 6.748C3.09 6.186 3.189 5.669 3.436 5.184C3.819 4.431 4.431 3.82 5.184 3.436C5.669 3.188 6.186 3.09 6.748 3.044C7.289 3 7.953 3 8.759 3H15.241C16.046 3 16.71 3 17.252 3.044C17.814 3.09 18.33 3.189 18.816 3.436C19.568 3.819 20.18 4.431 20.564 5.184C20.811 5.669 20.91 6.186 20.955 6.748C20.999 7.289 20.999 7.953 20.999 8.759V11.241C20.999 12.046 20.999 12.71 20.955 13.252C20.909 13.814 20.81 14.33 20.564 14.816C20.181 15.568 19.569 16.18 18.816 16.564C18.331 16.811 17.814 16.91 17.252 16.955C16.71 16.999 16.047 16.999 15.241 16.999H8.759C7.954 16.999 7.29 16.999 6.748 16.955C6.186 16.909 5.67 16.81 5.184 16.564C4.431 16.181 3.82 15.569 3.436 14.816C3.188 14.331 3.09 13.814 3.044 13.252C3 12.71 3 12.047 3 11.241ZM5.038 13.089C5.074 13.528 5.139 13.751 5.219 13.908C5.411 14.284 5.717 14.59 6.093 14.782C6.25 14.862 6.473 14.927 6.912 14.963C7.362 15 7.945 15.001 8.801 15.001H15.201C16.057 15.001 16.64 15 17.09 14.963C17.529 14.927 17.752 14.862 17.909 14.782C18.286 14.59 18.592 14.284 18.783 13.908C18.863 13.751 18.928 13.528 18.964 13.089C19.001 12.639 19.001 12.056 19.001 11.2V8.8C19.001 7.944 19 7.362 18.964 6.911C18.928 6.472 18.863 6.249 18.783 6.092C18.591 5.715 18.285 5.409 17.909 5.218C17.752 5.139 17.529 5.073 17.09 5.037C16.64 5 16.057 5 15.201 5H8.801C7.944 5 7.363 5.001 6.912 5.037C6.473 5.073 6.25 5.138 6.093 5.218C5.717 5.41 5.411 5.716 5.219 6.092C5.139 6.249 5.074 6.472 5.038 6.911C5.001 7.361 5.001 7.944 5.001 8.8V11.2C5.001 12.056 5.002 12.639 5.038 13.089Z"/></svg>
